X: 15914
T: Grand Spy, The
R: hornpipe
M: 4/4
K: Dmajor
|:AG|F2 FA GFED|F2 A2 AFdc|B2 BA Bcdc|B2 A2 Bc dA|
F2 (3FGA GFED|F2 AFdc|B2 BA BcdA|F2 E2 E2:|
|:(3FGA|B2 e2 edef|g2 fg edBc|df d2 dAFA|df d2 (3ded cA|
B2 e2 edef|g2 fg edBc|d2 cA BcdA|F2 E2 E2:|

